X: 27892
T: Mountain Lark
R: slide
M: 12/8
K: Gmajor
d2c|:B2G G3 D2G G3|B2G G3 A3 d2c|B2G G3 D2E F3|1 D2E F3 A3 d2c:|2 D2E F3 A3 B2c||
|:d2g g3 b2g g3|d2g g2e f3 f2e|d2g g3 b2g g3|a3 a2g f3 f2e|
d2g g3 b2g g3|a3 a2g f3 f2g|a2f g2e f2d e2^c|d2c d2e f3 d2c|

